public/img/index_features/key.svg

<svg width="24" height="24" viewBox="0 0 24 24" fill="none" xmlns="http://www.w3.org/2000/svg">
<g id="Frame">
<path id="Vector" d="M2 18.0002V21.0002C2 21.6002 2.4 22.0002 3 22.0002H7V19.0002H10V16.0002H12L13.4 14.6002C14.7898 15.0843 16.3028 15.0825 17.6915 14.5949C19.0801 14.1074 20.2622 13.163 21.0444 11.9163C21.8265 10.6696 22.1624 9.19433 21.9971 7.7319C21.8318 6.26946 21.1751 4.90641 20.1344 3.86573C19.0937 2.82505 17.7307 2.16834 16.2683 2.00305C14.8058 1.83776 13.3306 2.17366 12.0839 2.9558C10.8372 3.73795 9.89279 4.92003 9.40525 6.30868C8.91771 7.69733 8.91585 9.21033 9.4 10.6002L2 18.0002Z" stroke="#C0C1C3" stroke-width="2" stroke-linecap="round" stroke-linejoin="round"/>
<path id="Vector_2" d="M16.5 8C16.7761 8 17 7.77614 17 7.5C17 7.22386 16.7761 7 16.5 7C16.2239 7 16 7.22386 16 7.5C16 7.77614 16.2239 8 16.5 8Z" fill="#C0C1C3" stroke="#C0C1C3" stroke-width="2" stroke-linecap="round" stroke-linejoin="round"/>
</g>
</svg>

<svg xmlns="http://www.w3.org/2000/svg" fill="none" viewBox="0 0 24 24" preserveAspectRatio="xMidYMid meet"><g stroke="#c0c1c3" stroke-linecap="round" stroke-linejoin="round" stroke-width="2"><path d="M2 18v3c0 .6.4 1 1 1h4v-3h3v-3h2l1.4-1.4a6.5 6.5 0 1 0-4-4z"/><path fill="#c0c1c3" d="M16.5 8a.5.5 0 1 0 0-1 .5.5 0 0 0 0 1"/></g></svg>
